images/Foyster-Media.svg

<svg height="195" viewBox="0 0 1268 195" width="1268" xmlns="http://www.w3.org/2000/svg"><g fill="#942e7b" fill-rule="evenodd" transform="translate(.5)"><path d="m85.814625 84.264375c-46.286175 46.342725-84.529575 84.654375-84.985875 85.13895l-.82875.87945 43.895475.00195 43.89645.002925 10.14195-10.1751 10.140975-10.1751.685425.64155c.377325.35295 4.99005 4.930575 10.252125 10.17315l9.565725 9.530625h45.336525c24.93465 0 45.336525-.09555 45.336525-.211575 0-.117-14.042925-14.2545-31.20585-31.417425s-31.20585-31.395975-31.20585-31.63095c0-.463125 14.36955-14.965275 14.828775-14.965275.15405 0 17.8815 17.6007 39.392925 39.112125l39.112125 39.1131h45.114225c24.812775 0 45.110325-.09555 45.110325-.211575-.008775-.406575-169.641225-170.078025-170.0322-170.0712-.217425.0039-38.26485 37.922625-84.551025 84.264375"/><g transform="translate(385.39785 60)"><path d="m29.476785.62304993c-11.3439967 2.58400658-18.1122928 10.98029607-19.2068586 23.83451647-.78974997 9.2795625-1.15691444 10.2944605-3.64393418 10.0831677-6.318-.5368914-6.88260197-.1593355-6.55353947 4.3886546.3082796 4.2535658.32213487 4.2639573 4.82509539 4.7627468l4.51335198.5022532.26671381 29.3454474c.14548026 16.1413816.59577627 29.3974049 1.00104277 29.4632169 4.4994967.696227 7.1250691.803605 9.0024572.370629l2.2410888-.516109.2667139-29.3315921.26325-29.3315922 8.029125-.5022532 8.0256611-.4987895.3082797-4.2639573c.3429177-4.7662105.5715296-4.6761513-11.0045428-4.2847401-5.6009901.1905099-6.4219145-1.2504375-5.3169572-9.3176645 1.5517894-11.3682434 4.7835296-14.742 14.1185131-14.742 6.8652829 0 8.4136511-1.16730588 8.4136511-6.34224667 0-2.52858552.0796252-2.49394736-9.5289998-4.17736184-1.1049572-.19397368-3.8136612.05888487-6.0201118.55767434"/><path d="m273.940084 16.0439578-4.011099 1.2365823-.259786 6.4357697c-.419122 10.5196086-.568066 10.79325-6.016648 11.1430954l-4.762747.3048158v4.0145625 4.0145625l5.019069.4987895 5.015606.5022532.509181 24.0804474c.633878 30.0797763 2.521657 34.4649669 15.549069 36.1172069 9.470072 1.198481 13.037802-.322135 13.037802-5.5628878v-4.4683224l-5.639092-.2978881c-10.19401-.5368915-10.415694-1.1257402-10.415694-27.623931v-22.244625l8.527915-.5022532 8.527914-.4987895.325599-3.3910757c.439904-4.6103388-.207829-4.9948223-8.853513-5.226898-9.047487-.2424671-8.99553-.1766546-9.012849-11.1985164-.017319-9.8129902.110842-9.6882928-7.540727-7.3328981"/><path d="m75.7851396 35.0429874c25.4694374-10.4780427 50.0105724 11.0045428 45.5214674 39.8442731-6.612425 42.4663815-64.6694411 39.1134075-66.231622-3.8240527-.6823717-18.7149967 5.7256875-29.8546283 20.7101546-36.0202204zm17.1251053 7.6203948c-3.3980033-.9767961-5.5351777-1.1153487-7.4298849-.4814704-.2591749.0863916-.7638133.2241772-1.3789103.3794249l-.4799243.1191798c-.5791524.1416259-1.2170338.2901265-1.8232016.4227703-16.1171348 3.5400197-19.8649835 37.1043947-5.3827697 48.1505033 15.1472664 11.5518259 32.1892399-.6685165 32.1101269-23.0239836-.052512-14.1808618-5.175495-22.5736875-15.6154361-25.5664243z"/><path d="m217.899813 34.7935927c-18.638792 8.2646645-16.009756 28.825875 4.728109 37.0212632 24.492641 9.6813651 13.928003 30.3707371-10.890237 21.3267138l-5.64602-2.0540428-1.188088 3.9660691c-4.18429 13.973033 33.138325 12.70874 41.063536-1.3889901 6.91724-12.3069375 1.551789-22.5667599-16.051323-30.7032632-12.18224-5.6287007-14.984467-9.6571184-11.098065-15.9508717 3.037766-4.9151546 8.153822-6.0686053 17.166671-3.8794737 3.931431.9560132 7.267085 1.5864276 7.416029 1.4028454.869418-1.0772467 2.473165-7.2185921 2.060971-7.8836447-2.410816-3.9071843-20.232148-5.1056645-27.561583-1.8566053"/><path d="m329.535685 34.7901289c19.289991-8.5486974 39.501356 5.4555098 39.581023 27.4264934l.027711 8.0637632-23.727138.2701776c-26.484336.2978881-25.587207.0173191-23.602441 7.3917829 3.848299 14.2813125 17.471487 20.2563947 35.521431 15.5733158 9.206822-2.3865691 12.625608 5.7949638 3.643934 8.7184242-28.836266 9.383477-51.531187-5.0433157-51.531187-32.7573058 0-17.2567303 6.643598-28.7254243 20.086667-34.6866513zm20.810606 9.5289572c-6.106708-4.4475395-17.668925-2.9234605-22.836938 3.0135198-4.81124 5.52825-7.783194 14.3505888-4.877052 14.47875 1.251732.0564007 10.13037.0917775 18.468206.0980992l.959194.0006c.15931.0000783.318305.0001459.476925.0002024l2.343972.0000229c.153426-.000054.306186-.0001192.458224-.0001957l.903089-.0005943c5.360915-.0043825 9.634519-.0235051 10.110636-.0600326 3.813661-.2944243-.78975-13.7305658-6.006256-17.5303717z"/><path d="m400.62369 35.1365105c-2.258408 1.3543519-5.33774 4.3263059-6.8445 6.6054967-3.23174 4.8805164-3.87601 4.5583815-4.575701-2.2826546-.516108-5.0363882-.578457-5.1125921-4.035345-5.265-6.376885-.2771053-6.020112-2.3172928-6.020112 34.5827368 0 37.1667436-.353309 35.1127006 6.020112 35.1127006 6.17252 0 6.016648.519572 6.016648-20.0970591 0-29.22075 3.616224-37.814477 16.352674-38.8709408l5.722224-.4745428v-5.8954145-5.8954144l-4.263957.0103914c-2.729487.0069276-5.743007.8971283-8.372043 2.4697007"/><path d="m131.851971 35.3616585c-.443368 1.1534506 12.684493 35.4244441 18.766954 48.9922105.997579 2.2237697 2.82301 6.9622697 4.059592 10.5334638l2.25148 6.4946542-2.306901 4.866662c-2.878431 6.072069-9.075197 12.421243-15.316993 15.701477-6.667846 3.501917-4.721181 14.735072 2.043651 11.797756 13.356474-5.794964 23.799878-20.03471 33.301125-45.407161 1.240046-3.3114079 2.618645-6.9241678 3.062013-8.029125.446832-1.1014934 2.919997-7.6481053 5.497076-14.5445625 2.577079-6.8999211 5.064098-13.4465329 5.521322-14.5480263 2.635964-6.3214638 6.085924-15.8365658 5.833066-16.0755691-.1628-.1524079-3.006592-.4364408-6.318-.6304145l-6.020112-.3498454-2.085217 6.0201119c-1.149987 3.3114079-2.372714 6.6955559-2.722559 7.5234079-.516109 1.2157993-10.924875 33.2491677-12.310402 37.8733618-.820924 2.7502697-2.355394.9490855-4.267421-5.0156053-1.104957-3.4499605-3.630079-10.6720164-5.611381-16.0513223-1.981303-5.3827698-5.195724-14.160079-7.142388-19.5116744-1.950129-5.3515954-3.640471-9.8095263-3.761704-9.9099769-1.350889-1.0980297-12.03676-.8694178-12.473201.2701776"/></g><g transform="translate(874.39785 61.461293)"><path d="m259.205574 0 6.269507.29788816 6.269506.29788816.259787 50.10063158c.056113 10.7717743.109318 19.3023213.115081 26.0575103l.000262 1.9737618c-.015845 24.338149-.781031 23.712844-4.739055 23.687269l-.319154-.000308c-5.015605.027711-5.850384-.841707-5.850384-6.1136344l-.000311-.4540461c-.008939-5.5246291-.251198-5.39283-5.656101-.0655263-22.507875 22.1892038-55.840174-5.2788553-47.107894-38.8155197 6.148273-23.598977 31.423736-34.0112073 47.045546-19.3731217 1.548325 1.447875 3.013519 2.6325 3.262914 2.6325.245931 0 .450296-9.0509507.450296-20.1143783zm-7.918283 44.3784079c-8.998993-6.8791382-22.629108-3.0377665-27.994559 7.8871085-11.770046 23.9661415 7.748556 50.5786386 27.56851 37.5927928 11.666132-7.6411776 11.936309-36.6818092.426049-45.4799013z"/><g transform="translate(298.119717 5.303448)"><path d="m4.39899617 1.01801566c-7.45066777 4.27434869-4.91169079 13.83794404 3.67164473 13.83794404 4.4475395 0 6.8618191-2.5251217 6.8618191-7.17702627 0-6.03050329-5.53171383-9.52895724-10.53346383-6.66091777"/><path d="m2.25143038 28.4098709c-.21475658.5542106-.27017763 16.1309902-.12469737 34.6104474l.26671382 33.602477 2.38656907.3394539c1.31625.1835823 3.91064803.0519573 5.7707171-.2978881l3.3806842-.6338783v-33.9731053-33.9731053l-5.64948353-.3429177c-3.19363816-.1939737-5.8122829.093523-6.03050329.6685164"/></g><path d="m23.2075658 33.2283849c-2.4108158 1.0945658-6.1101711 3.8760098-8.2161711 6.1794473l-3.8309802 4.1912171-.3117434-4.9463289-.3117435-4.9497928-5.26846378-.3013519-5.26846382-.3048158v34.0493092 34.0458449l2.25840789.606168c1.24004606.332527 3.94875.609632 6.02011185.616559l3.76170396.013856v-21.1258128c0-28.3686513 2.5459046-36.0444671 13.0031645-39.1757566 14.4337204-4.3263059 18.0949736 2.6602106 18.9817105 36.2245856l.620023 23.5747298 4.4025099.315208c6.3942039.460687 6.3768848.512644 6.1967664-21.6627043-.2493947-31.0773553 4.3263059-40.9076645 18.1746415-39.0510592 11.2608651 1.5102237 12.8126546 5.8053553 12.8403651 35.5318224.0242467 25.8504571-.1039145 25.3689871 6.8999211 25.3689871 6.4011315 0 6.1655921.883273 6.1655921-23.0447667 0-28.3825066-1.260829-34.9291185-8.105329-42.0922895-8.5729441-8.9712829-24.4268289-8.0118059-33.4985625 2.0263322-4.2085362 4.6588323-4.776602 4.7523553-7.10775 1.1603783-5.6702664-8.7530625-17.3086875-11.8289309-27.4057105-7.2497664"/><path d="m144.889656 33.602477c19.729895-9.0128487 39.529066 4.4059737 39.972434 27.0870394l.159336 8.1295757-23.54702.2701776c-12.951207.1489441-23.962678.6892994-24.475322 1.1984803-1.905099 1.9050987 2.466237 13.1174704 6.903385 17.7139539 4.5757 4.7385 19.296917 6.8063981 29.279634 4.1150132 6.016649-1.6210658 6.841037-1.3231776 7.696599 2.7883717.859026 4.1288684.038102 4.9151546-6.892993 6.5777862-28.708106 6.899921-48.659684-6.5951053-48.659684-32.90625 0-17.8525066 6.148273-28.8431941 19.563631-34.974148zm21.333642 9.2587796c-3.488063-2.5424408-13.068977-3.2455954-17.319079-1.2677566-7.287869 3.384148-15.244254 18.5071678-9.896122 18.7981283.779936.0431053 5.057609.0657804 10.263717.0704701l1.357559.0008111c.458262.0001392.921728.0001478 1.388778.0000274l1.410289-.0007469c.787672-.0006283 1.580807-.0016109 2.371917-.0029405l.94788-.0017618c6.148662-.0125282 11.991754-.0460002 13.974557-.0970338 5.188796-.131625 1.929346-12.8126546-4.499496-17.4991973z"/><path d="m352.67225 32.3901414c12.698348-4.5237434 30.22872 1.1950165 35.095381 11.451375 4.11155 8.6664672 5.095273 57.6621416 1.174234 58.4172536-5.171477.994115-8.680323-.779359-8.680323-4.3886549 0-4.0873026-.865954-4.2916677-4.686542-1.1014934-15.860813 13.2387043-38.455283 5.3793063-38.455283-13.3737928 0-14.4129375 9.792207-22.1649572 31.856714-25.2200427l9.279562-1.2816119v-3.1693914c0-10.9179474-12.13721-16.0859605-26.612497-11.3370691-7.142388 2.3484671-8.181533 2.0367237-8.683786-2.5874704-.332526-3.0620131 1.555253-4.5029605 9.71254-7.409102zm25.583743 33.9211481-3.259451.1212335c-17.426457.6546612-25.414016 5.7637895-25.258144 16.1587007.155871 10.4607237 11.101529 14.9983224 21.253973 8.8084835 5.535178-3.3772204 7.256694-7.3640723 7.260158-16.8133618z"/></g></g></svg>

<?xml version="1.0" encoding="UTF-8"?>
<svg width="1268px" height="195px" viewBox="0 0 1268 195" version="1.1" xmlns="http://www.w3.org/2000/svg" xmlns:xlink="http://www.w3.org/1999/xlink">
    <title>Group 4</title>
    <g id="🏗-Builder:-Front-page" stroke="none" stroke-width="1" fill="none" fill-rule="evenodd">
        <g id="Artboard" transform="translate(-93.000000, -390.000000)" fill="#942E7B">
            <g id="Group-4" transform="translate(93.500000, 390.000000)">
                <path d="M85.814625,84.264375 C39.52845,130.6071 1.28505,168.91875 0.82875,169.403325 L-5.68434189e-14,170.282775 L43.895475,170.284725 L87.791925,170.28765 L97.933875,160.11255 L108.07485,149.93745 L108.760275,150.579 C109.1376,150.93195 113.750325,155.509575 119.0124,160.75215 L128.578125,170.282775 L173.91465,170.282775 C198.8493,170.282775 219.251175,170.187225 219.251175,170.0712 C219.251175,169.9542 205.20825,155.8167 188.045325,138.653775 C170.8824,121.49085 156.839475,107.2578 156.839475,107.022825 C156.839475,106.5597 171.209025,92.05755 171.66825,92.05755 C171.8223,92.05755 189.54975,109.65825 211.061175,131.169675 L250.1733,170.282775 L295.287525,170.282775 C320.1003,170.282775 340.39785,170.187225 340.39785,170.0712 C340.389075,169.664625 170.756625,-0.006825 170.36565,1.27897692e-13 C170.148225,0.0039 132.1008,37.922625 85.814625,84.264375" id="Shape"></path>
                <g id="Group-3" transform="translate(385.397850, 60.000000)">
                    <path d="M29.476785,0.623049934 C18.1327883,3.20705651 11.3644922,11.603346 10.2699264,24.4575664 C9.48017643,33.7371289 9.11301196,34.7520269 6.62599222,34.5407341 C0.307992221,34.0038427 -0.256609753,34.3813986 0.0724527468,38.9293887 C0.380732352,43.1829545 0.394587615,43.193346 4.89754814,43.6921355 L9.41090012,44.1943887 L9.67761393,73.5398361 C9.82309419,89.6812177 10.2733902,102.937241 10.6786567,103.003053 C15.1781534,103.69928 17.8037258,103.806658 19.6811139,103.373682 L21.9222027,102.857573 L22.1889166,73.5259809 L22.4521666,44.1943887 L30.4812916,43.6921355 L38.5069527,43.193346 L38.8152324,38.9293887 C39.1581501,34.1631782 39.386762,34.2532374 27.8106896,34.6446486 C22.2096995,34.8351585 21.3887751,33.3942111 22.4937324,25.3269841 C24.0455218,13.9587407 27.277262,10.5849841 36.6122455,10.5849841 C43.4775284,10.5849841 45.0258966,9.41767822 45.0258966,4.24273743 C45.0258966,1.71415191 45.1055218,1.74879007 35.4968968,0.0653755914 C34.3919396,-0.128598093 31.6832356,0.12426046 29.476785,0.623049934" id="Path"></path>
                    <path d="M273.940084,16.0439578 L269.928985,17.2805401 L269.669199,23.7163098 C269.250077,34.2359184 269.101133,34.5095598 263.652551,34.8594052 L258.889804,35.164221 L258.889804,39.1787835 L258.889804,43.193346 L263.908873,43.6921355 L268.924479,44.1943887 L269.43366,68.2748361 C270.067538,98.3546124 271.955317,102.739803 284.982729,104.392043 C294.452801,105.590524 298.020531,104.069908 298.020531,98.8291552 L298.020531,94.3608328 L292.381439,94.0629447 C282.187429,93.5260532 281.965745,92.9372045 281.965745,66.4390137 L281.965745,44.1943887 L290.49366,43.6921355 L299.021574,43.193346 L299.347173,39.8022703 C299.787077,35.1919315 299.139344,34.807448 290.49366,34.5753723 C281.446173,34.3329052 281.49813,34.3987177 281.480811,23.3768559 C281.463492,13.5638657 281.591653,13.6885631 273.940084,16.0439578" id="Path"></path>
                    <path d="M75.7851396,35.0429874 C101.254577,24.5649447 125.795712,46.0475302 121.306607,74.8872605 C114.694182,117.353642 56.6371659,114.000668 55.074985,71.0632078 C54.3926133,52.3482111 60.8006725,41.2085795 75.7851396,35.0429874 Z M92.9102449,42.6633822 C89.5122416,41.6865861 87.3750672,41.5480335 85.48036,42.1819118 C85.2211851,42.2683034 84.7165467,42.406089 84.1014497,42.5613367 L83.6215254,42.6805165 C83.042373,42.8221424 82.4044916,42.970643 81.7983238,43.1032868 C65.681189,46.6433065 61.9333403,80.2076815 76.4155541,91.2537901 C91.5628205,102.805616 108.604794,90.5852736 108.525681,68.2298065 C108.473169,54.0489447 103.350186,45.656119 92.9102449,42.6633822 Z" id="Combined-Shape"></path>
                    <path d="M217.899813,34.7935927 C199.261021,43.0582572 201.890057,63.6194677 222.627922,71.8148559 C247.120563,81.496221 236.555925,102.185593 211.737685,93.1415697 L206.091665,91.0875269 L204.903577,95.053596 C200.719287,109.026629 238.041902,107.762336 245.967113,93.6646059 C252.884353,81.3576684 247.518902,71.097846 229.91579,62.9613427 C217.73355,57.332642 214.931323,53.3042243 218.817725,47.010471 C221.855491,42.0953164 226.971547,40.9418657 235.984396,43.1309973 C239.915827,44.0870105 243.251481,44.7174249 243.400425,44.5338427 C244.269843,43.456596 245.87359,37.3152506 245.461396,36.650198 C243.05058,32.7430137 225.229248,31.5445335 217.899813,34.7935927" id="Path"></path>
                    <path d="M329.535685,34.7901289 C348.825676,26.2414315 369.037041,40.2456387 369.116708,62.2166223 L369.116708,62.2166223 L369.144419,70.2803855 L345.417281,70.5505631 C318.932945,70.8484512 319.830074,70.5678822 321.81484,77.942346 C325.663139,92.2236585 339.286327,98.1987407 357.336271,93.5156618 C366.543093,91.1290927 369.961879,99.3106256 360.980205,102.234086 C332.143939,111.617563 309.449018,97.1907703 309.449018,69.4767802 C309.449018,52.2200499 316.092616,40.7513559 329.535685,34.7901289 Z M350.346291,44.3190861 C344.239583,39.8715466 332.677366,41.3956256 327.509353,47.3326059 C322.698113,52.8608559 319.726159,61.6831947 322.632301,61.8113559 C323.884033,61.8677566 332.762671,61.9031334 341.100507,61.9094551 L342.059701,61.9100551 C342.219011,61.9101334 342.378006,61.910201 342.536626,61.9102575 L344.880598,61.9102804 C345.034024,61.9102264 345.186784,61.9101612 345.338822,61.9100847 L346.241911,61.9094904 C351.602826,61.9051079 355.87643,61.8859853 356.352547,61.8494578 C360.166208,61.5550335 355.562797,48.118892 350.346291,44.3190861 Z" id="Combined-Shape"></path>
                    <path d="M400.62369,35.1365105 C398.365282,36.4908624 395.28595,39.4628164 393.77919,41.7420072 C390.54745,46.6225236 389.90318,46.3003887 389.203489,39.4593526 C388.687381,34.4229644 388.625032,34.3467605 385.168144,34.1943526 C378.791259,33.9172473 379.148032,31.8770598 379.148032,68.7770894 C379.148032,105.943833 378.794723,103.88979 385.168144,103.88979 C391.340664,103.88979 391.184792,104.409362 391.184792,83.7927309 C391.184792,54.5719809 394.801016,45.9782539 407.537466,44.9217901 L413.25969,44.4472473 L413.25969,38.5518328 L413.25969,32.6564184 L408.995733,32.6668098 C406.266246,32.6737374 403.252726,33.5639381 400.62369,35.1365105" id="Path"></path>
                    <path d="M131.851971,35.3616585 C131.408603,36.5151091 144.536464,70.7861026 150.618925,84.353869 C151.616504,86.5776387 153.441935,91.3161387 154.678517,94.8873328 L156.929997,101.381987 L154.623096,106.248649 C151.744665,112.320718 145.547899,118.669892 139.306103,121.950126 C132.638257,125.452043 134.584922,136.685198 141.349754,133.747882 C154.706228,127.952918 165.149632,113.713172 174.650879,88.340721 C175.890925,85.0293131 177.269524,81.4165532 177.712892,80.311596 C178.159724,79.2101026 180.632889,72.6634907 183.209968,65.7670335 C185.787047,58.8671124 188.274066,52.3205006 188.73129,51.2190072 C191.367254,44.8975434 194.817214,35.3824414 194.564356,35.1434381 C194.401556,34.9910302 191.557764,34.7069973 188.246356,34.5130236 L182.226244,34.1631782 L180.141027,40.1832901 C178.99104,43.494698 177.768313,46.878846 177.418468,47.706698 C176.902359,48.9224973 166.493593,80.9558657 165.108066,85.5800598 C164.287142,88.3303295 162.752672,86.5291453 160.840645,80.5644545 C159.735688,77.114494 157.210566,69.8924381 155.229264,64.5131322 C153.247961,59.1303624 150.03354,50.3530532 148.086876,45.0014578 C146.136747,39.6498624 144.446405,35.1919315 144.325172,35.0914809 C142.974283,33.9934512 132.288412,34.2220631 131.851971,35.3616585" id="Path"></path>
                </g>
                <g id="Group-2" transform="translate(874.397850, 61.461293)">
                    <path d="M259.205574,2.13162821e-14 L265.475081,0.297888158 L271.744587,0.595776316 L272.004374,50.6964079 C272.060487,61.4681822 272.113692,69.9987292 272.119455,76.7539182 L272.119717,78.72768 C272.103872,103.065829 271.338686,102.440524 267.380662,102.414949 L267.061508,102.414641 C262.045903,102.442352 261.211124,101.572934 261.211124,96.3010066 L261.211124,96.3010066 L261.210813,95.8469605 C261.201874,90.3223314 260.959615,90.4541305 255.554712,95.7814342 C233.046837,117.970638 199.714538,90.5025789 208.446818,56.9659145 C214.595091,33.3669375 239.870554,22.9547072 255.492364,37.5927928 C257.040689,39.0406678 258.505883,40.2252928 258.755278,40.2252928 C259.001209,40.2252928 259.205574,31.1743421 259.205574,20.1109145 L259.205574,2.13162821e-14 Z M251.287291,44.3784079 C242.288298,37.4992697 228.658183,41.3406414 223.292732,52.2655164 C211.522686,76.2316579 231.041288,102.844155 250.861242,89.8583092 C262.527374,82.2171316 262.797551,53.1765 251.287291,44.3784079 Z" id="Combined-Shape"></path>
                    <g id="Group" transform="translate(298.119717, 5.303448)">
                        <path d="M4.39899617,1.01801566 C-3.0516716,5.29236435 -0.512694622,14.8559597 8.0706409,14.8559597 C12.5181804,14.8559597 14.93246,12.330838 14.93246,7.67893343 C14.93246,1.64843014 9.40074617,-1.85002381 4.39899617,1.01801566" id="Path"></path>
                        <path d="M2.25143038,28.4098709 C2.0366738,28.9640815 1.98125275,44.5408611 2.12673301,63.0203183 L2.39344683,96.6227953 L4.7800159,96.9622492 C6.0962659,97.1458315 8.69066393,97.0142065 10.550733,96.6643611 L13.9314172,96.0304828 L13.9314172,62.0573775 L13.9314172,28.0842722 L8.28193367,27.7413545 C5.08829551,27.5473808 2.46965077,27.8348775 2.25143038,28.4098709" id="Path"></path>
                    </g>
                    <path d="M23.2075658,33.2283849 C20.79675,34.3229507 17.0973947,37.1043947 14.9913947,39.4078322 L11.1604145,43.5990493 L10.8486711,38.6527204 L10.5369276,33.7029276 L5.26846382,33.4015757 L-5.68434189e-14,33.0967599 L-5.68434189e-14,67.1460691 L-5.68434189e-14,101.191914 L2.25840789,101.798082 C3.49845395,102.130609 6.20715789,102.407714 8.27851974,102.414641 L12.0402237,102.428497 L12.0402237,81.3026842 C12.0402237,52.9340329 14.5861283,45.2582171 25.0433882,42.1269276 C39.4771086,37.8006217 43.1383618,44.7871382 44.0250987,78.3515132 L44.6451217,101.926243 L49.0476316,102.241451 C55.4418355,102.702138 55.4245164,102.754095 55.244398,80.5787467 C54.9950033,49.5013914 59.5707039,39.6710822 73.4190395,41.5276875 C84.6799046,43.0379112 86.2316941,47.3330428 86.2594046,77.0595099 C86.2836513,102.909967 86.1554901,102.428497 93.1593257,102.428497 C99.5604572,102.428497 99.3249178,103.31177 99.3249178,79.3837303 C99.3249178,51.0012237 98.0640888,44.4546118 91.2195888,37.2914408 C82.6466447,28.3201579 66.7927599,29.2796349 57.7210263,39.317773 C53.5124901,43.9766053 52.9444243,44.0701283 50.6132763,40.4781513 C44.9430099,31.7250888 33.3045888,28.6492204 23.2075658,33.2283849" id="Path"></path>
                    <path d="M144.889656,33.602477 C164.619551,24.5896283 184.418722,38.0084507 184.86209,60.6895164 L184.86209,60.6895164 L185.021426,68.8190921 L161.474406,69.0892697 C148.523199,69.2382138 137.511728,69.7785691 136.999084,70.28775 C135.093985,72.1928487 139.465321,83.4052204 143.902469,88.0017039 C148.478169,92.7402039 163.199386,94.808102 173.182103,92.1167171 C179.198752,90.4956513 180.02314,90.7935395 180.878702,94.9050888 C181.737728,99.0339572 180.916804,99.8202434 173.985709,101.482875 C145.277603,108.382796 125.326025,94.8877697 125.326025,68.576625 C125.326025,50.7241184 131.474298,39.7334309 144.889656,33.602477 Z M166.223298,42.8612566 C162.735235,40.3188158 153.154321,39.6156612 148.904219,41.5935 C141.61635,44.977648 133.659965,60.1006678 139.008097,60.3916283 C139.788033,60.4347336 144.065706,60.4574087 149.271814,60.4620984 L150.629373,60.4629095 C151.087635,60.4630487 151.551101,60.4630573 152.018151,60.4629369 L153.42844,60.46219 C154.216112,60.4615617 155.009247,60.4605791 155.800357,60.4592495 L156.748237,60.4574877 C162.896899,60.4449595 168.739991,60.4114875 170.722794,60.3604539 C175.91159,60.2288289 172.65214,47.5477993 166.223298,42.8612566 Z" id="Combined-Shape"></path>
                    <path d="M352.67225,32.3901414 C365.370598,27.866398 382.90097,33.5851579 387.767631,43.8415164 C391.879181,52.5079836 392.862904,101.503658 388.941865,102.25877 C383.770388,103.252885 380.261542,101.479411 380.261542,97.8701151 C380.261542,93.7828125 379.395588,93.5784474 375.575,96.7686217 C359.714187,110.007326 337.119717,102.147928 337.119717,83.3948289 C337.119717,68.9818914 346.911924,61.2298717 368.976431,58.1747862 L368.976431,58.1747862 L378.255993,56.8931743 L378.255993,53.7237829 C378.255993,42.8058355 366.118783,37.6378224 351.643496,42.3867138 C344.501108,44.7351809 343.461963,44.4234375 342.95971,39.7992434 C342.627184,36.7372303 344.514963,35.2962829 352.67225,32.3901414 Z M378.255993,66.3112895 L374.996542,66.432523 C357.570085,67.0871842 349.582526,72.1963125 349.738398,82.5912237 C349.894269,93.0519474 360.839927,97.5895461 370.992371,91.3997072 C376.527549,88.0224868 378.249065,84.0356349 378.252529,74.5863454 L378.252529,74.5863454 L378.255993,66.3112895 Z" id="Combined-Shape"></path>
                </g>
            </g>
        </g>
    </g>
</svg>
